X:13
T:Hughie Travers'
R:Reel
M:4/4
L:1/8
N:from Jamie Gans, City of Rocks, YAH CD 021
K:Am
|:AAcA eAcA|AAcA GA E2|AAcA
eAe^f|
gggg edcB|AAcA eAcA|
AAcA GA E2|c2AcB2GB|dBGB
cAA2::cde^f geee|
G2G^F GAE2|cde^f geee|
ea2gaged|cde^f geee|G2G^F
GAEA|c2AcB2GB|
dBGB cAA2:|
